X:392
T: HOERT IHR HERRN UND LASST EUCH  SAGEN
N: E1582
O: Europa, Mitteleuropa, Deutschland, Thueringen; Sachsen
R: Staende - Lied, Nachtwaechter
M: 4/4
L: 1/8
K: C
 | C3CG2G2 | E2G2E2C2 |
C2C2G3G | E2G2E2C
C | C2C2G2G2 | E2G2C3
C | C2C2G3G | E2G2C4 |
C2C2C3C | C8

@@@ Tune index: 5076
